img/features/works-everywhere.svg

<svg xmlns="http://www.w3.org/2000/svg" viewBox="0 0 24 24" height="32" width="32">
    <path d="M3.47 14.73a1 1 0 0 0 1-1V5.42a.67.67 0 0 1 .66-.67H18.8a.67.67 0 0 1 .67.67v8.31a1 1 0 1 0 2 0V5.42a2.68 2.68 0 0 0-2.67-2.67H5.13a2.67 2.67 0 0 0-2.66 2.67v8.31a1 1 0 0 0 1 1Zm20.42 1.71a.49.49 0 0 0-.39-.19h-8a.5.5 0 0 0-.5.5c0 .71-1.23 1.5-3 1.5s-3-.79-3-1.5a.5.5 0 0 0-.5-.5h-8a.49.49 0 0 0-.39.19.51.51 0 0 0-.1.43 5.78 5.78 0 0 0 5.61 4.38h12.76A5.78 5.78 0 0 0 24 16.87a.51.51 0 0 0-.11-.43Z"/>
    <path d="M9.47 9.4a.76.76 0 0 0 .75-.75V7.5a.75.75 0 1 0-1.5 0v1.15a.75.75 0 0 0 .75.75Zm5 0a.76.76 0 0 0 .75-.75V7.5a.75.75 0 1 0-1.5 0v1.15a.75.75 0 0 0 .75.75Zm-6.81 1.96a.75.75 0 0 0 0 1.06 6.25 6.25 0 0 0 8.84 0 .75.75 0 0 0-1.06-1.06 4.76 4.76 0 0 1-6.72 0 .75.75 0 0 0-1.06 0Z"/>
</svg>

<svg xmlns="http://www.w3.org/2000/svg" viewBox="0 0 24 24" height="32" width="32">
    <g>
        <path
            d="M3.47,14.73a1,1,0,0,0,1-1V5.42a.67.67,0,0,1,.66-.67H18.8a.67.67,0,0,1,.67.67v8.31a1,1,0,1,0,2,0V5.42A2.68,2.68,0,0,0,18.8,2.75H5.13A2.67,2.67,0,0,0,2.47,5.42v8.31A1,1,0,0,0,3.47,14.73Z"
            fill="#000000"/>
        <path
            d="M23.89,16.44a.49.49,0,0,0-.39-.19h-8a.5.5,0,0,0-.5.5c0,.71-1.23,1.5-3,1.5s-3-.79-3-1.5a.5.5,0,0,0-.5-.5H.5a.49.49,0,0,0-.39.19.51.51,0,0,0-.1.43,5.78,5.78,0,0,0,5.61,4.38H18.38A5.78,5.78,0,0,0,24,16.87.51.51,0,0,0,23.89,16.44Z"
            fill="#000000"/>
        <path d="M9.47,9.4a.76.76,0,0,0,.75-.75V7.5a.75.75,0,1,0-1.5,0V8.65A.75.75,0,0,0,9.47,9.4Z" fill="#000000"/>
        <path d="M14.47,9.4a.76.76,0,0,0,.75-.75V7.5a.75.75,0,1,0-1.5,0V8.65A.75.75,0,0,0,14.47,9.4Z" fill="#000000"/>
        <path
            d="M7.66,11.36a.75.75,0,0,0,0,1.06,6.25,6.25,0,0,0,8.84,0,.75.75,0,0,0-1.06-1.06,4.76,4.76,0,0,1-6.72,0A.75.75,0,0,0,7.66,11.36Z"
            fill="#000000"/>
    </g>
</svg>
